raw-svg/file-check.svg

<svg fill="none" height="24" viewBox="0 0 24 24" width="24" xmlns="http://www.w3.org/2000/svg"><path clip-rule="evenodd" d="m5.25 6c0-1.51421 1.23579-2.75 2.75-2.75h4.5c.1989 0 .3897.07902.5303.21967l5.5 5.5c.1407.14065.2197.33142.2197.53033v8.5c0 1.5142-1.2358 2.75-2.75 2.75h-8c-1.51421 0-2.75-1.2358-2.75-2.75zm2.75-1.25c-.68579 0-1.25.56421-1.25 1.25v12c0 .6858.56421 1.25 1.25 1.25h8c.6858 0 1.25-.5642 1.25-1.25v-7.75h-4.75c-.4142 0-.75-.33579-.75-.75v-4.75zm5.25 1.06066 2.9393 2.93934h-2.9393zm2.0303 7.21964c.2929-.2929.2929-.7677 0-1.0606s-.7677-.2929-1.0606 0l-3.4697 3.4696-.96967-.9696c-.29289-.2929-.76777-.2929-1.06066 0s-.29289.7677 0 1.0606l1.50003 1.5c.2929.2929.7677.2929 1.0606 0z" fill="#000" fill-rule="evenodd"/></svg>

<svg width="24" height="24" viewBox="0 0 24 24" fill="none" xmlns="http://www.w3.org/2000/svg">
<path fill-rule="evenodd" clip-rule="evenodd" d="M5.25 6C5.25 4.48579 6.48579 3.25 8 3.25H12.5C12.6989 3.25 12.8897 3.32902 13.0303 3.46967L18.5303 8.96967C18.671 9.11032 18.75 9.30109 18.75 9.5V18C18.75 19.5142 17.5142 20.75 16 20.75H8C6.48579 20.75 5.25 19.5142 5.25 18V6ZM8 4.75C7.31421 4.75 6.75 5.31421 6.75 6V18C6.75 18.6858 7.31421 19.25 8 19.25H16C16.6858 19.25 17.25 18.6858 17.25 18V10.25H12.5C12.0858 10.25 11.75 9.91421 11.75 9.5V4.75H8ZM13.25 5.81066L16.1893 8.75H13.25V5.81066ZM15.2803 13.0303C15.5732 12.7374 15.5732 12.2626 15.2803 11.9697C14.9874 11.6768 14.5126 11.6768 14.2197 11.9697L10.75 15.4393L9.78033 14.4697C9.48744 14.1768 9.01256 14.1768 8.71967 14.4697C8.42678 14.7626 8.42678 15.2374 8.71967 15.5303L10.2197 17.0303C10.5126 17.3232 10.9874 17.3232 11.2803 17.0303L15.2803 13.0303Z" fill="black"/>
</svg>
